X:1
T:F Major Timothy Swan, 1801
T:Charles Wesley, 1740 Amended by George Whitefield, 1758 77. 77.
T:Thanksgiving
T:Transcribed from Swan's New England Harmony, 1801.
%%score [ 1 2 3 4 ]
L:1/8
Q:1/4=90
M:2/4
K:F
V:1 treble nm="Tr." snm="Tr."
V:2 treble nm="C." snm="C."
V:3 treble-8 nm="T." snm="T."
V:4 bass nm="B." snm="B."
V:1
 (A2 d)d | f3 c | f2 ed | c4 | cA FB | A2 d2 | cB/A/ BG | G4 | c>d ef | e>d cc | ff/e/ dc | B4 | %12
 A>B cd | cA FG | A>B cd | c4 | f>e df | c2 F2 | c2 c2 | c4 | z4 | z4 | z4 | z4 | c3 c | c3 c | %26
 A3 B | c4 | AG/A/ FA | B2 d2 | c2 c2 | c4 |"^Publish through the world abroad," c3 c | dc BA | %34
 A3 B | c4 | AF cc | c3 c | cA d2 | c4 | A>B cf | e>d cc | f2 Fd | d4 |[M:4/4] f4 c4 | d4 d4 | %46
 c4 A4 | F8 |[M:3/2] z12 | z12 | z12 | z12 |[M:4/4] c6 fe | d6 f2 | c4 c4 | A8 | z8 | z8 | z8 | %59
"^Sing we still in Jesus' name." c2 A2 c2 BA | B2 d2 d4- | d4 z4 |[M:2/4] A2 c2 | f2 f2 | ed cB | %65
 A4 | c3 c | c3 B | A2 d2 | c4 | c>B Af | c2 z2 | d3 d | d2 z2 | fcd/c/ B/A/ | (G2 A)c | c3 c | %77
 c4 |] %78
V:2
"^Meet  and  right  it    is             to   sing   Glo   –   ry    to     our      God      and    King;  Meet   in               eve   –   ry     time     and" F2 F2 | %1
 A3 F | A>G FF | G4 | c3 B | A2 BG | A2 B2 | c4 | G2 G2 | G3 G | F2 F2 | %11
"^place,  To          re – hearse  his    sol  –  emn praise,  To            re–hearse   his   solemn  praise." F4 | %12
 A3 B | c3 B | A>B AG | A4 | F3 F/G/ | A2 F2 | G2 E2 | F4 | z4 | z4 | z4 | z4 | %24
"^Join ye   saints the   song ____  a–round,    An   –   gels        help the   cheer–ful     sound," c3 c | %25
 A3 A/G/ | (F2 A)G | G4 | FA Ac | F2 G2 | c2 G/A/B | A4 | A3 A | BA GF | c3 B | A4 | %36
"^Praise  and  glo   –  ry          to    the  Lord.             Prai   –   ses    here        to       thee  we give,  Gracious thou our thanks receive;" A3 F | %37
 c2 G2 | AF G2 | G4 | A>G FF | E3 E | F2 F2 | G4 |[M:4/4] A4 F4 | D4 G4 | A4 F4 | F8 |[M:3/2] z12 | %49
 z12 | z12 | z12 |[M:4/4]"^Eve–ry  –   where  be            thou     a   –  dored." A6 c2 | %53
 (B2 A2) (G2 F2) | E4 E4 | F8 | z8 | z8 | z8 | F2 F2 F2 EF | G2 A2 G4- | G4 z4 | %62
[M:2/4]"^Sing  ye      prai – ses    to      the    Lord,  Join  to  sing  with   one accord.  Join       to    sing," A2 A2 | %63
 AF FA | c2 c2 | A4 | c3 c | c3 B | A2 G2 | F4 | A3 G | F2 z2 | %72
"^Join ____     to      sing,          Join _______    to        sing                  with  one ______  ac – cord." (D2 G)G | %73
 G2 z2 | c>B Ac | c3 G | G>F EG | A4 |] %78
V:3
 F>G FA | A3 A | c>d cf | e4 | f3 d | c2 g>f | ec dB | c4 | A2 A/G/ A/B/ | c3 c | d3 d | d4 | %12
 c>d cB | A3 d | dc cB | A4 | d>e fd | c2 d/c/B | A2 G2 | F4 | z4 | z4 | z4 | z4 | A3 c | f3 e | %26
 dc fd |{d} c4 | (c2 f)f | (f d2) d | ec fe | f4 | z4 | z4 | z4 | z4 | f>e df | eg cf | A2 B2 | %39
 c4 | c3 c | c3 f/e/ | d2 d2 | d4 |[M:4/4] A4 A4 | B4 B4 | A4 A4 | B8 | %48
[M:3/2]"^Ho – ly    Fa –ther,  Sovereign Lord," A8 A4 | d8 A4 | c8 c4 | c8 z4 |[M:4/4] (A2 c4) de | %53
 f6 dB | (A3 F G2) G2 | F8 | z4"^Though this wicked world exclaim," A3 B | c2 c2 d2 c2 | c8 | z8 | %60
 z8 | z8 |[M:2/4] fe de | fd c2 | FG AB | c4 | c3 c | c3 d | c2 B2 | A4 | F>G AA | A2 z2 | G>A BB | %73
 B2 z2 | A>B cf | ed/e/ fg | A2 G2 | F4 |] %78
V:4
 F,2 D,2 | D,3 F, | F,>G, A,B, | C4 | F,3 G, | A,F, G,2 | A,G,/F,/ G,G, | C,4 | C2 C2 | C,2 C,2 | %10
 B,2 B,2 | B,,4 | A,>B, A,G, | F,3 G, | A,>B, A,G, | F,4 | B,,3 B,, | A,,3 B,, | C,2 C,2 | F,4 | %20
"^Join  ye  saints  the  song  around," A,3 A, | A,3 C | B,A, G,F, | C,4 | %24
"^__________________________________________________________\nEdited by B. C. Johnston, 2016\n   1. Measure 11, \nTreble\n: original as \n4 8 8\n  \n8 8\n, changed to \n8 16 16\n  \n8 8\n.\n   2. Rest measures eliminated after measures 20 and 40." C3 A, | %25
 F,3 C, | F,3 G, | C,4 | A,2 F,2 | B,2 G,2 | C,2 C2 | F,4 | z4 | z4 | z4 | z4 | F,3 F, | C,3 C, | %38
 F,2 G,2 | C,4 | F,>G, A,F, | C,3 A,, | B,,2 B,2 | G,4 |[M:4/4] F,4 F,4 | G,4 G,4 | F,4 F,4 | %47
 B,,8 |[M:3/2] D,8 D,4 | D,8 F,4 | C8 C,4 | F,8 z4 |[M:4/4] F,6 C,2 | B,4 B,4 | C4 C,4 | F,8 | %56
 z4 F,3 G, | A,2 F,2 D,2 F,2 | C,8 | z8 | z8 | z8 |[M:2/4] F,2 A,2 | F,2 A,2 | CB, A,G, | F,4 | %66
 C3 C | C2 G,A,/B,/ | A,2 G,2 | F,4 | A,>G, F,F, | F,2 z2 | B,>A, G,G, | G,2 z2 | F,3 F, | C,3 C, | %76
 C,2 C,2 | F,4 |] %78

